X: 29475
T: Night We Had The Goats, The
R: reel
M: 4/4
K: Gmajor
dG G/G/G dBBd|efge dBBe|dG G/G/G dBBd|egdB A/A/A A2:|
e|d<BgB dBBA|dega bage|d<BgB dBBd|egdB A/A/A A2e|
d<BgB dBBA|dega bage|(b/a/g/f/) ge dBBd|egdB A/A/A A2||

